src/assets/images/icon-camera.svg

<svg width="20" height="20" viewBox="0 0 20 20" fill="none" xmlns="http://www.w3.org/2000/svg">
<path d="M7.60156 1.25H12.3984C13.207 1.25 13.9219 1.76641 14.1758 2.53203L14.582 3.75H17.5C18.8789 3.75 20 4.87109 20 6.25V16.25C20 17.6289 18.8789 18.75 17.5 18.75H2.5C1.11914 18.75 0 17.6289 0 16.25V6.25C0 4.87109 1.11914 3.75 2.5 3.75H5.41797L5.82422 2.53203C6.07813 1.76641 6.79297 1.25 7.60156 1.25ZM10 15C12.0703 15 13.75 13.3203 13.75 11.25C13.75 9.14453 12.0703 7.5 10 7.5C7.89453 7.5 6.25 9.14453 6.25 11.25C6.25 13.3203 7.89453 15 10 15Z" fill="#303030"/>
</svg>

<svg width="20" height="20" fill="none" xmlns="http://www.w3.org/2000/svg"><path d="M7.6 1.25h4.8c.8 0 1.52.52 1.78 1.28l.4 1.22h2.92a2.5 2.5 0 0 1 2.5 2.5v10a2.5 2.5 0 0 1-2.5 2.5h-15a2.5 2.5 0 0 1-2.5-2.5v-10a2.5 2.5 0 0 1 2.5-2.5h2.92l.4-1.22c.26-.76.97-1.28 1.78-1.28ZM10 15a3.75 3.75 0 1 0 0-7.5 3.75 3.75 0 0 0 0 7.5Z" fill="#303030"/></svg>
